src/svg/uf1a5-delicious.svg

<!-- Generated by IcoMoon.io -->
<svg version="1.1" xmlns="http://www.w3.org/2000/svg" width="27" height="32" viewBox="0 0 27 32">
<path d="M26.286 24.571v-8.571h-12.571v-12.571h-8.571c-2.214 0-4 1.786-4 4v8.571h12.571v12.571h8.571c2.214 0 4-1.786 4-4zM27.429 7.429v17.143c0 2.839-2.304 5.143-5.143 5.143h-17.143c-2.839 0-5.143-2.304-5.143-5.143v-17.143c0-2.839 2.304-5.143 5.143-5.143h17.143c2.839 0 5.143 2.304 5.143 5.143z"></path>
</svg>

<svg xmlns="http://www.w3.org/2000/svg" width="27" height="32"><path d="M26.286 24.571V16H13.715V3.429H5.144c-2.214 0-4 1.786-4 4V16h12.571v12.571h8.571c2.214 0 4-1.786 4-4zm1.143-17.142v17.143a5.145 5.145 0 0 1-5.143 5.143H5.143A5.145 5.145 0 0 1 0 24.572V7.429a5.145 5.145 0 0 1 5.143-5.143h17.143a5.145 5.145 0 0 1 5.143 5.143z"/></svg>
